src/img/channel/channel_32.svg

<svg fill="none" height="78" viewBox="0 0 137 78" width="137" xmlns="http://www.w3.org/2000/svg"><g fill="#fff"><path d="m41.4967 54.4082h-19.0818v-30.2057h19.0818c8.5098 0 17.2338 4.2792 17.2338 15.1029 0 10.8221-8.724 15.1028-17.2338 15.1028zm-2.1653-45.84008c-16.8852 0-30.5731 13.68798-30.5731 30.57468 0 16.8851 13.6879 30.573 30.5731 30.573 16.8851 0 30.573-13.6879 30.573-30.573 0-16.8867-13.6879-30.57468-30.573-30.57468z"/><path d="m40.3363 32.9974h-8.4144v12.6186h8.4144c6.1131 0 8.2737-2.5375 8.2737-6.3086 0-3.7725-2.1763-6.31-8.2737-6.31z"/><path d="m106.829 40.1547-5.054-13.802h-6.8716l-5.0546 13.802-4.0509-13.802h-9.0289l8.5005 26.6143h7.6546l5.3688-12.8842 5.4631 12.8842h7.654l8.499-26.6143h-9.027z"/></g><path d="m111.411 52.9662h-7.655l-5.4626-12.8827-5.3688 12.8827h-7.6562l-8.4988-26.6128h9.0273l4.0524 13.8004 5.0546-13.8004h6.8701l5.056 13.8004 4.051-13.8004h9.029zm-72.0796 16.7506c-16.8851 0-30.57301-13.6894-30.57301-30.5745 0-16.8852 13.68791-30.57306 30.57301-30.57306 16.8852 0 30.5731 13.68786 30.5731 30.57306 0 16.8851-13.6879 30.5745-30.5731 30.5745zm57.8567-69.7168c-11.5648 0-21.9523 5.03276-29.0941 13.0266-7.1418-7.99384-17.5308-13.0266-29.094-13.0266-21.5395 0-39 17.4605-39 39s17.4605 39 39 39c11.5632 0 21.9522-5.0327 29.094-13.0282 7.1418 7.9955 17.5293 13.0282 29.0941 13.0282 21.5379 0 38.9989-17.4605 38.9989-39s-17.461-39-38.9989-39z" fill="#11386b"/><path d="m40.3362 45.6154h-8.4144v-12.6185h8.4144c6.0975 0 8.2738 2.5375 8.2738 6.31 0 3.7711-2.1607 6.3085-8.2738 6.3085zm1.1601-21.4129h-19.0817v30.2057h19.0817c8.5098 0 17.2338-4.2792 17.2338-15.1029s-8.724-15.1028-17.2338-15.1028z" fill="#11386b"/></svg>

<svg width="137" height="78" viewBox="0 0 137 78" fill="none" xmlns="http://www.w3.org/2000/svg">
<path d="M41.4967 54.4082H22.4149V24.2025H41.4967C50.0065 24.2025 58.7305 28.4817 58.7305 39.3054C58.7305 50.1275 50.0065 54.4082 41.4967 54.4082ZM39.3314 8.56812C22.4462 8.56812 8.7583 22.2561 8.7583 39.1428C8.7583 56.0279 22.4462 69.7158 39.3314 69.7158C56.2165 69.7158 69.9044 56.0279 69.9044 39.1428C69.9044 22.2561 56.2165 8.56812 39.3314 8.56812Z" fill="white"/>
<path d="M40.3363 32.9974H31.9219V45.616H40.3363C46.4494 45.616 48.61 43.0785 48.61 39.3074C48.61 35.5349 46.4337 32.9974 40.3363 32.9974Z" fill="white"/>
<path d="M106.829 40.1547L101.775 26.3527H94.9034L89.8488 40.1547L85.7979 26.3527H76.769L85.2695 52.967H92.9241L98.2929 40.0828L103.756 52.967H111.41L119.909 26.3527H110.882L106.829 40.1547Z" fill="white"/>
<path d="M111.411 52.9662H103.756L98.2934 40.0835L92.9246 52.9662H85.2684L76.7696 26.3534H85.7969L89.8493 40.1538L94.9039 26.3534H101.774L106.83 40.1538L110.881 26.3534H119.91L111.411 52.9662ZM39.3314 69.7168C22.4463 69.7168 8.75839 56.0274 8.75839 39.1423C8.75839 22.2571 22.4463 8.56924 39.3314 8.56924C56.2166 8.56924 69.9045 22.2571 69.9045 39.1423C69.9045 56.0274 56.2166 69.7168 39.3314 69.7168ZM97.1881 0C85.6233 0 75.2358 5.03276 68.094 13.0266C60.9522 5.03276 50.5632 0 39 0C17.4605 0 0 17.4605 0 39C0 60.5395 17.4605 78 39 78C50.5632 78 60.9522 72.9673 68.094 64.9718C75.2358 72.9673 85.6233 78 97.1881 78C118.726 78 136.187 60.5395 136.187 39C136.187 17.4605 118.726 0 97.1881 0Z" fill="#11386B"/>
<path d="M40.3362 45.6154H31.9218V32.9969H40.3362C46.4337 32.9969 48.61 35.5344 48.61 39.3069C48.61 43.078 46.4493 45.6154 40.3362 45.6154ZM41.4963 24.2025H22.4146V54.4082H41.4963C50.0061 54.4082 58.7301 50.129 58.7301 39.3053C58.7301 28.4816 50.0061 24.2025 41.4963 24.2025Z" fill="#11386B"/>
</svg>
